!!!!SEGMENT: pl-kc--40102-iii-1-saf--001-034_zielenski-mikolaj--offertoria-totius-anni-in-festo-exaltationis-s-crucis-protege-domine.krn
!!!cenid: 16xx:1513
!!!COM: Zieleński, Mikołaj
!!!COM-rismID: pe30013481
!!!CDT: <1611->1611
!!!CNT: Polish
!!!GTL: Offertoria totius anni
!!!OTL: In festo Exaltationis S. Crucis/Protege Domine
!!!OMV: 034
!!!PDT: 1611
!!!AGN:
!!!SMS-siglum: PL-Kc
!!!SMS-shelfmark: 40102 III/1 Saf.
!!!SMS-shelfwork: 001-034 G
!!!SMS-variant:
!!!SMS-altvar:
!!!NIFC-rismSourceID: 990069886
!!!NIFC-rismChildID: 990069886
!!!NIFC-islandoraID:
!!!URL-pdf-islandora:
!!!URL-scan: https://cyfrowe.mnk.pl/dlibra/publication/24235/edition/23926/content?ref=desc @EN{Scan on The National Museum in Krakow Website} @PL{Skany w portalu Biblioteka Cyfrowa Muzeum Narodowego w Krakowie}
!!!ONB-nifc: UWAGA: str. 31-32. Uwaga: W xml metrum 2/1 do źródłowego C| i odpowiednio 3/1 do 3/2
!!!AIN: 4 empty
!!!key: F
**kern	**kern	**kern	**kern
*group1	*group1	*group1	*group1
*Iempty	*Iempty	*Iempty	*Iempty
*I""Organo	*I""Organo	*I""Organo	*I""Organo
*I''org	*I''org	*I''org	*I''org
*part4	*part3	*part2	*part1
*staff4	*staff3	*staff2	*staff1
*clefF4	*clefC1	*clefF4	*clefC1
*k[b-]	*k[b-]	*k[b-]	*k[b-]
*F:	*F:	*F:	*F:
*M2/1	*M2/1	*M2/1	*M2/1
*met(C|)	*met(C|)	*met(C|)	*met(C|)
=1	=1	=1	=1
!	!	!	!LO:TX:b:t=Protege Domine
!	!	!	!LO:TX:a:t=In feſto Exaltationis S. Crucis.  A 8
!	!	!	!LO:TX:t=P:problem=dwa utwory na co wskazują strony oraz następny utwór nr 35 to Justorum Anime(F.V.)
00r	00r	1F	1cc
.	.	2F\	2a#X\
.	.	2D/	2b-\
=2-	=2-	=2-	=2-
.	.	2.C/	2.cc\
.	.	4C/	4cc\
.	.	2F\	2cc\
.	.	[<2BB-/	[<2dd\
=3	=3	=3	=3
0r	0r	2BB-/]	2dd\]
.	.	2AA/	2cc\
.	.	1BB-	1b-
=4-	=4-	=4-	=4-
1F	1cc	1FF	1a
2F\	2a\	1r	1r
!	!LO:N:acc=#	!	!
2D/	2bn\	.	.
=5	=5	=5	=5
2.C/	2.cc\	00r	00r
4C/	4cc\	.	.
2F\	2cc\	.	.
1BB-/	1dd\	.	.
=6-	=6-	=6-	=6-
.	.	.	.
2C/	2.cc\	.	.
1GG	.	.	.
!	!LO:N:acc=#	!	!
.	8bn\	.	.
.	8a\	.	.
.	2b\	.	.
=7	=7	=7	=7
1C	1cc	1r	1r
1FF	1cc	1F	1ff
=8-	=8-	=8-	=8-
2BB-/	2b-\	2BB-/	2dd\
2GG/	2b-\	2BB-/	2ee\
2.FF/	2.cc\	2.F\	2.ff\
4FF/	4cc\	4F\	4ff\
=9	=9	=9	=9
2AA/	2cc\	2F\	2ee\
1BB-	1b-	1BB-	1dd
2FF/	2a\	2C/	2cc\
=10-	=10-	=10-	=10-
1GG	1g	1G	1b-
1D	1f#X	2.D/	2a\
.	.	.	2dd\
.	.	4D/	.
=11	=11	=11	=11
0r	0r	2BB-/	2ff\
.	.	4C/	4ee\
.	.	2G\	2dd\
.	.	4C/	4cc\
!	!	!	!LO:N:acc=#
.	.	2G\	2bn\
=12-	=12-	=12-	=12-
2r	2r	1C	1cc
2C/	2g/	.	.
2AA/	2cc\	1r	1r
4BB-/	4b-\	.	.
[>4FF/	[>4a\	.	.
=13	=13	=13	=13
4FF/]	4a\]	1r	1r
4GG/	4g/	.	.
2D/	2f#X/	.	.
1GG	1g	2r	2r
.	.	4G\	4dd\
.	.	4G\	4dd\
=14-	=14-	=14-	=14-
0r	0r	4.C/	4.ee\
.	.	8C/	8ee\
.	.	4F\	4cc\
.	.	4F\	4cc\
.	.	4F\	4cc\
.	.	4D/	4dd\
.	.	4.G\	4.b-\
.	.	8F\	8a\
=15	=15	=15	=15
0r	0r	2E-X\	4b-\
.	.	.	4g/
.	.	4D/	2.cc\
.	.	4C/	.
.	.	2G\	.
!	!	!	!LO:N:acc=#
.	.	.	8bn\
.	.	.	8a\
.	.	2GG/	2b\
=16-	=16-	=16-	=16-
2r	2r	1C	1cc
4C/	4g/	.	.
4C/	4g/	.	.
4.FF/	4.a\	1r	1r
8FF/	8a\	.	.
4BB-/	4f/	.	.
4BB-/	4f/	.	.
=17	=17	=17	=17
4BB-/	4f/	00r	00r
4GG/	4g/	.	.
2.C/	4.e/	.	.
.	8f/	.	.
.	2g/	.	.
4BB-/	.	.	.
4AA/	2a\	.	.
8GG/	.	.	.
8FF/	.	.	.
=18-	=18-	=18-	=18-
2BB-/	4g/	.	.
.	4f/	.	.
2D/	2.f/	.	.
2.C/	.	.	.
.	8e/	.	.
.	8d/	.	.
.	2e/	.	.
4C/	.	.	.
=19	=19	=19	=19
2.FF/	2f/	2r	2r
.	2a\	2F\	2cc\
4FF/	.	.	.
2BB-/	2b-\	2BB-/	2dd\
4FF/	4a\	4C/	4cc\
2GG/	2g/	2GG/	2b-\
=20-	=20-	=20-	=20-
.	.	.	.
4GG/	4dd\	4G\	4b-\
2GG/	2b-\	2G\	2g/
2D/	2a\	1D	2a\
4BB-/	4dd\	.	2r
4BB-/	4dd\	.	.
=21	=21	=21	=21
4.F\	4.cc\	2r	2r
8F\	8cc\	.	.
2BB-/	2dd\	4BB-/	4dd\
.	.	4BB-/	4dd\
2r	2r	4.F\	4.cc\
.	.	8F\	8cc\
4BB-/	4dd\	2BB-/	2dd\
4BB-/	4dd\	.	.
=22-	=22-	=22-	=22-
4.F\	4.cc\	1r	1r
8F\	8cc\	.	.
2BB-/	2dd\	.	.
4BB-/	4b-\	4D/	4ff\
4FF/	4cc\	4C/	4ff\
4.C/	4.cc\	4.C/	4.ee\
8C/	8cc\	8C/	8ee\
=23	=23	=23	=23
4AA/	4cc\	4C/	4ff\
4BB-/	4b-\	4D/	4dd\
4BB-/	4b-\	4D/	4dd\
4FF/	4cc\	4C/	4ff\
2.C/	2cc\	1.E	2.ee\
.	2g/	.	.
4BB-/	.	.	4dd\
=24-	=24-	=24-	=24-
2AA/	1.a	.	4cc#X\
.	.	.	4a\
2DD/	.	2D/	2.dd\
2.AA/	.	2.E\	.
.	.	.	8cc#X\
.	.	.	8b-\
*	*custos:a	*	*custos:dd
.	2a\	.	2cc#\
*custos:DD	*	*custos:D	*
4AA/	.	4E\	.
!!LO:LB:g=original
=25	=25	=25	=25
1DD	1a	2.D/	2dd\
.	.	.	2a\
.	.	4D/	.
0r	0r	2A\	2cc#X\
.	.	2F#X\	2dd\
=26-	=26-	=26-	=26-
.	.	4G\	1b-
.	.	4GG/	.
.	.	4BB-/	.
.	.	4C/	.
2r	2r	1D	1a
2D/	2a\	.	.
=27	=27	=27	=27
2AA/	2cc\	0r	0r
2BB-/	2b-\	.	.
4FF/	1a	.	.
4GG/	.	.	.
4AA/	.	.	.
4FF/	.	.	.
=28-	=28-	=28-	=28-
*M3/1	*M3/1	*M3/1	*M3/1
*met(3/2)	*met(3/2)	*met(3/2)	*met(3/2)
0C	0g	1%6r	1%6r
1GG	1b-	.	.
=29-	=29-	=29-	=29-
0D	0a	.	.
1BB-	1dd	.	.
=30	=30	=30	=30
0F	0cc	1%6r	1%6r
1F	1cc	.	.
=31-	=31-	=31-	=31-
1D	1dd	.	.
1E-X	1b-	.	.
1C	1cc	.	.
=32-	=32-	=32-	=32-
*M2/1	*M2/1	*M2/1	*M2/1
*met(C|)	*met(C|)	*met(C|)	*met(C|)
2BB-/	2dd\	2r	2r
4r	4r	2F\	2cc\
4FF/	4cc\	.	.
2C/	2cc\	2G\	2cc\
2C/	[y2cc\	2C/	2ee-X\
=33	=33	=33	=33
!	!LO:N:xstem:cue	!	!
1GG	4cc\]	1D	1dd
!	!LO:N:acc=#	!	!
.	8bn\	.	.
.	8a\	.	.
.	2b\	.	.
=34-	=34-	=34-	=34-
*M3/1	*M3/1	*M3/1	*M3/1
*met(3/2)	*met(3/2)	*met(3/2)	*met(3/2)
0.C	0.b-y	0E	0cc
.	.	1F	1cc
=35-	=35-	=35-	=35-
1%6r	1%6r	0BB-	0dd
.	.	1E	1b-
=36-	=36-	=36-	=36-
*	*	*	*col
.	.	1.C	0cc
.	.	2BB-/	.
.	.	1AA	1cc
=37	=37	=37	=37
1%3r	1%3r	1FF	1a
.	.	1C	1g
.	.	1C	1g
*	*	*	*Xcol
=38-	=38-	=38-	=38-
1r	1r	0FF	0a
1r	1r	.	.
1FF	1a	1F	1cc
=39-	=39-	=39-	=39-
0BB-	0b-	0D	0dd
1GG	1b-	1D	1dd
=40-	=40-	=40-	=40-
1.C	0g	0C	1.ee
2BB-/	.	.	2dd\
1AA	1cc	1C	1cc
=41	=41	=41	=41
1FF	1cc	1C	1ff
1C	1cc	1C	1ff
1C	1cc	1C	1ee
=42-	=42-	=42-	=42-
*M2/1	*M2/1	*M2/1	*M2/1
*met(C|)	*met(C|)	*met(C|)	*met(C|)
2.FF/	2cc\	1C	1ff
.	2cc\	.	.
4FF/	.	.	.
=43	=43	=43	=43
2BB-/	2dd\	00r	00r
4GG/	4b-\	.	.
2C/	2g/	.	.
4C/	4g/	.	.
4FF/	2.a\	.	.
2F\	.	.	.
=44-	=44-	=44-	=44-
.	.	.	.
4C/	2cc\	.	.
2E-X\	.	.	.
.	4g/	.	.
2.BB-/	2b-\	.	.
.	2f/	.	.
[>4D/	.	.	.
=45	=45	=45	=45
4D/]	4r	00r	00r
4AA/	2a\	.	.
2C/	.	.	.
.	4e/	.	.
2GG/	2g/	.	.
2.D/	2f/	.	.
=46-	=46-	=46-	=46-
.	2d/	.	.
8C/	.	.	.
8BB-/	.	.	.
2AA/	2.a\	.	.
2.BB-/	.	.	.
.	4g/	.	.
.	2.g/	.	.
4C/	.	.	.
=47	=47	=47	=47
1D	.	1r	1r
.	8f#X/	.	.
.	8e/	.	.
.	2f#/	.	.
1GG	1g	2r	2r
!	!	!	!LO:N:acc=#
.	.	4r	2bn\
.	.	4G\	.
=48-	=48-	=48-	=48-
0r	0r	2C/	2cc\
.	.	4D/	4a\
.	.	2GG/	2b-y\
.	.	4GG/	4b-\
.	.	2D/	4a\
.	.	.	[<4dd\
=49	=49	=49	=49
00r	00r	2BB-/	4dd\]
.	.	.	2b-\
.	.	1E	.
.	.	.	4b-\
.	.	.	2ee\
.	.	2C/	2ee\
=50-	=50-	=50-	=50-
.	.	2F\	2cc\
.	.	1D	1ff
.	.	2E-X\	2ee-X\
=51	=51	=51	=51
*custos:C	*custos:cc	*	*
00r	00r	2BB-/	2dd\
.	.	2C/	2cc\
.	.	2.G\	2b-\
.	.	.	2.dd\
.	.	4F\	.
=52-	=52-	=52-	=52-
.	.	2E-X\	.
.	.	.	4cc\
.	.	4D/	2.cc\
.	.	4C/	.
*	*	*custos:C	*
.	.	1G	.
!	!	!	!LO:N:acc=#
.	.	.	8bn\
.	.	.	8a\
*	*	*	*custos:cc
.	.	.	2b\
!!LO:LB:g=original
=53	=53	=53	=53
0r	0r	1C	1cc
.	.	1r	1r
=54-	=54-	=54-	=54-
1C	1cc	1C	1ee
2AA/	2cc\	2F\	2ff\
2BB-/	2b-\	2BB-/	2dd\
=55	=55	=55	=55
2.FF/	2.a\	2.C/	2.cc\
4FF/	4a\	4C/	4cc\
1C	2g/	1C	2cc\
.	1cc\	.	1ee-X\
=56-	=56-	=56-	=56-
1GG	.	1.D	.
.	2b-\	.	1dd
2D/	2a\	.	.
2DD/	[<2dd\	2D/	[<2ff\
=57	=57	=57	=57
1AA	2dd\]	2E\	2ff\]
.	2cc\	2C/	2ee\
2.BB-/	2.b-\	2.D/	2.dd\
4BB-/	4b-\	4BB-/	4dd\
=58-	=58-	=58-	=58-
2FF/	2a\	2C/	2cc\
2GG/	2g/	2G\	2b-\
2.D/	4f/	1.D	2a\
.	4d/	.	.
.	2.dd\	.	2.ff\
4C/	.	.	.
=59	=59	=59	=59
2BB-/	.	.	.
.	4cc\	.	4ee\
2C/	2.cc\	2E\	4ee\
.	.	.	8dd\
.	.	.	8cc\
1GG	.	1D	1dd
!	!LO:N:acc=#	!	!
.	8bn\	.	.
.	8a\	.	.
.	2b\	.	.
=60-	=60-	=60-	=60-
*M3/1	*M3/1	*M3/1	*M3/1
*met(3/2)	*met(3/2)	*met(3/2)	*met(3/2)
0.C	0.cc	0C	0ee
.	.	1C	1ee
=61-	=61-	=61-	=61-
1%3r	1%3r	0F	0ff
.	.	1BB-	1dd
=62	=62	=62	=62
1%6r	1%6r	1.F	2cc\
.	.	.	2b-\
.	.	.	2a\
.	.	2E\	2g\
.	.	1D	1a
=63-	=63-	=63-	=63-
*	*	*	*col
.	.	1BB-	1dd
.	.	0F	0cc
*	*	*	*Xcol
=64-	=64-	=64-	=64-
1r	1r	0.BB-	0.b-
1r	1r	.	.
1BB-	1dd	.	.
=65-	=65-	=65-	=65-
0F	0cc	1%3r	1%3r
1FF	1a	.	.
=66	=66	=66	=66
*	*col	*	*
1.C	0g	1%6r	1%6r
2BB-/	.	.	.
1AA	1a	.	.
=67	=67	=67	=67
*col	*	*	*
1FF	1a	.	.
0C	0g	.	.
*Xcol	*Xcol	*	*
=68-	=68-	=68-	=68-
0FF	0a	1r	1r
.	.	1r	1r
1FF	1a	1C	1cc
=69-	=69-	=69-	=69-
0BB-	0b-	0BB-	0dd
1GG	1dd	1BB-	1b-
=70	=70	=70	=70
*col	*	*col	*
0DD	0dd	0D	1.a
!	!	!	!LO:N:acc=#
.	.	.	2bn\
1AA	1a	1E	1cc#X
*	*	*	*
=71-	=71-	=71-	=71-
*	*col	*	*
1DD	1a	1D	0dd
0AA	0a	0E	.
!	!	!	!LO:TX:a:t=P:problem=# above
.	.	.	1cc#X
*Xcol	*	*Xcol	*
=72-	=72-	=72-	=72-
0DD	0a	0D	0dd
1DD	1dd	1D	1ff
=73-	=73-	=73-	=73-
1.AA	0cc	0E	0ee
2BB-/	.	.	.
1C	1cc	1C	1ee
=74	=74	=74	=74
*	*	*col	*col
1.GG	0b-	0D	0dd
2AA/	.	.	.
1BB-	1b-	1BB-	1dd
=75-	=75-	=75-	=75-
0C	1a	1C	1cc
.	0g	0C	0cc
1FF	.	.	.
*	*Xcol	*Xcol	*Xcol
=76-	=76-	=76-	=76-
*M2/1	*M2/1	*M2/1	*M2/1
*met(C|)	*met(C|)	*met(C|)	*met(C|)
1FF	2a\	1C	2cc\
.	2cc\	.	2.ff\
2.BB-/	1b-	2.D/	.
.	.	.	4ee\
.	.	.	[<2dd\
4C/	.	4E\	.
=77	=77	=77	=77
2D/	2b-\	4F\	2dd\]
.	.	4G\	.
2AA/	2a\	2A\	1cc
0BB-	2.dd\	0D	.
.	.	.	4b-\
.	4cc\	.	4a\
=78-	=78-	=78-	=78-
.	2b-\	.	4b-\
.	.	.	4f/
.	2b-\	.	4b-\
.	.	.	4cc\
1BB-	1.b-	1BB-	1dd
=79-	=79-	=79-	=79-
0FFl	.	0Cl	0ccl
.	4a\	.	.
.	4g/	.	.
.	1al	.	.
=80||	=80||	=80||	=80||
*clefF4	*clefC1	*clefF4	*clefG2
*k[]	*k[]	*k[]	*k[]
*M2/1	*M2/1	*M2/1	*M2/1
*met(C|)	*met(C|)	*met(C|)	*met(C|)
!	!	!	!LO:TX:b:t=Stetit Angelus.
!	!	!	!LO:TX:a:t=In dieDedicationis Baſilicae Arch angeli Michaelis  A 8.
0r	0r	1.G	1.dd
.	.	2G\	2dd\
=81-	=81-	=81-	=81-
1r	1r	2.C/	2.cc\
.	.	4C/	4cc\
[y1G	1.dd	1GG	1b
=82	=82	=82	=82
!LO:N:xstem:cue	!	!	!
2G\]	.	0r	0r
2G\	2dd\	.	.
2.C/	2.cc\	.	.
4C/	4cc\	.	.
=83-	=83-	=83-	=83-
1GG	1b	1.G	1.dd
1r	1r	.	.
.	.	2G\	2dd\
=84	=84	=84	=84
*custos:C	*custos:cc	*	*
00r	00r	2.C/	2.cc\
.	.	4C/	4cc\
.	.	2GG/	4b/
.	.	.	2dd\
.	.	2D/	.
.	.	.	2a/
=85-	=85-	=85-	=85-
.	.	2AA/	.
.	.	.	2cc\
.	.	1E	.
.	.	.	8b\
.	.	.	8a/
.	.	.	2b/
*	*	*	*custos:dd
.	.	4D/	2ee\
*	*	*custos:F	*
.	.	4C/	.
!!LO:LB:g=original
=86	=86	=86	=86
0r	0r	2F\	4dd\
.	.	.	4cc\
.	.	2A\	2.cc\
.	.	2G\	.
.	.	.	8b/
.	.	.	8a/
.	.	2GG/	2b/
=87-	=87-	=87-	=87-
1r	1r	1C	1cc
[y1C	[y1cc	2.C/	[y1ee
.	.	4D/	.
=88	=88	=88	=88
!LO:N:xstem:cue	!LO:N:xstem:cue	!	!LO:N:xstem:cue
2C/]	2cc\]	4E\	2ee\]
.	.	4F\	.
2C/	2cc\	4G\	2ee\
.	.	4C/	.
2.GG/	2.b\	2.D/	2.dd\
4GG/	4b\	4D/	4dd\
=89-	=89-	=89-	=89-
2D/	2a\	2D/	2dd\
2AA/	2a\	2E\	2cc\
4E\	4g/	4E\	4b/
2C/	2cc\	2E\	2ee\
4F\	4a\	4F\	4cc\
=90	=90	=90	=90
*	*	*	*lig
4D/	2a\	2F\	1ff
4E\	.	.	.
4F\	4a\	2D/	.
8E\	2dd\	.	.
8D\	.	.	.
1E	.	1AA	1ee
.	8cc#X\	.	.
.	8b\	.	.
.	2cc#\	.	.
*	*	*	*Xlig
=91-	=91-	=91-	=91-
2F\	2.dd\	1D	1dd
2D/	.	.	.
.	4a\	.	.
2BB/	2b\	1r	1r
4C/	4g/	.	.
[>4AA/	[>4ccny\	.	.
=92	=92	=92	=92
4AA/]	4cc\]	00r	00r
4AA/	4cc\	.	.
2GG#X/	2b\	.	.
2.AA/	2.a\	.	.
4AA/	4a\	.	.
=93-	=93-	=93-	=93-
2.E\	2g#X/	.	.
.	2b\	.	.
4E\	.	.	.
4AA/	2.cc\	.	.
4BB/	.	.	.
4C/	.	.	.
4D/	8b\	.	.
.	8a\	.	.
=94	=94	=94	=94
2.E\	4g/	00r	00r
.	4a\	.	.
.	4b\	.	.
8D/	4cc\	.	.
8C/	.	.	.
4BB/	2.dd\	.	.
4C/	.	.	.
2D/	.	.	.
.	4cc\	.	.
=95-	=95-	=95-	=95-
2GG/	2b\	.	.
2D/	2.a\	.	.
2C/	.	.	.
.	4g/	.	.
2GG/	2.g/	.	.
=96	=96	=96	=96
1D	.	1r	1r
.	8f#X/	.	.
.	8e/	.	.
.	2f#/	.	.
1GG	1g	2r	2r
.	.	2G\	2dd\
=97-	=97-	=97-	=97-
0r	0r	2E\	2ee\
.	.	4F\	4cc\
.	.	2D/	2ff\
.	.	4D/	4ff\
.	.	2C#X/	2ee\
=98	=98	=98	=98
00r	00r	2.D/	2.dd\
.	.	4D/	4dd\
.	.	2.A\	2cc#X\
.	.	.	2ee\
.	.	4A\	.
=99-	=99-	=99-	=99-
.	.	4D\	2.ff\
.	.	4E\	.
.	.	4F\	.
.	.	4G\	8ee\
.	.	.	8dd\
.	.	2.A\	4ccny\
.	.	.	4dd\
.	.	.	4ee\
.	.	8G\	4ff\
.	.	8F\	.
=100	=100	=100	=100
00r	00r	4E\	2.gg\
.	.	4F\	.
.	.	2G\	.
.	.	.	4ff\
.	.	2C/	2ee\
.	.	2G\	2.dd\
=101	=101	=101	=101
.	.	2F\	.
.	.	.	4cc\
.	.	2C/	2.cc\
.	.	2G\	.
.	.	.	8b/
.	.	.	8a/
.	.	2GG/	2b/
=102	=102	=102	=102
*M3/1	*M3/1	*M3/1	*M3/1
*met(3/2)	*met(3/2)	*met(3/2)	*met(3/2)
1%6r	1%6r	0.C	0.cc
=103-	=103-	=103-	=103-
.	.	1C	1ee
.	.	1C	1ee
.	.	1C	1ee
=104-	=104-	=104-	=104-
1FF	1cc	0C	0ff
1FF	1cc	.	.
1FF	1cc	1C	1ff
=105-	=105-	=105-	=105-
0C	0cc	2E\	0.ee
.	.	2D/	.
.	.	2C/	.
.	.	2D/	.
1C	1cc	2E\	.
.	.	2F\	.
=106	=106	=106	=106
0.GG	0.b	1G	1dd
.	.	1G	1dd
.	.	1GG	1dd
=107-	=107-	=107-	=107-
1DD	1dd	0D	0ff
1DD	1dd	.	.
1DD	1dd	1D	1ff
=108-	=108-	=108-	=108-
0AA	0cc	2E\	0.ee
.	.	2D/	.
.	.	2C/	.
.	.	2D/	.
1AA	1cc	2E\	.
.	.	2F\	.
=109-	=109-	=109-	=109-
*custos:FF	*	*	*
0.EE	1.ee	1E	1gg
.	.	1E	1gg
.	2dd\	.	.
*	*	*custos:C	*custos:ff
.	2cc\	1E	1gg
*	*custos:a	*	*
.	2b\	.	.
!!LO:PB:g=original
=110	=110	=110	=110
1FF	1a	0C	0ff
1FF	1a	.	.
1FF	1cc	1C	1ff
=111-	=111-	=111-	=111-
0C	0cc	0.C	0.ee
1C	1cc	.	.
=112-	=112-	=112-	=112-
*M2/1	*M2/1	*M2/1	*M2/1
*met(C|)	*met(C|)	*met(C|)	*met(C|)
2.AA/	2cc\	2r	2r
.	2cc\	2E\	2ee\
4AA/	.	.	.
2FF/	2a\	2AA/	4ee\
.	.	.	4dd\
2DD/	2a\	2D/	2.dd\
=113	=113	=113	=113
1AA	1a	1E	.
.	.	.	8cc#X\
.	.	.	8b\
.	.	.	2cc#\
2DD/	2.a\	2.D/	2.dd\
2D/	.	.	.
.	4a\	4D/	4dd\
=114-	=114-	=114-	=114-
2BB/	2b\	2D/	2dd\
2C/	2g/	2C/	2ee\
1AA	1a	1C	1ccny
=115	=115	=115	=115
1GG	2d/	0D	1b
.	2g/	.	.
2r	2b\	.	1r
2G\	2.dd\	.	.
=116-	=116-	=116-	=116-
2B\	.	0r	0r
.	8cc\	.	.
.	8b\	.	.
2d\	2a\	.	.
4G\	1b	.	.
4GG/	.	.	.
2BB/	.	.	.
=117	=117	=117	=117
2D/	4r	00r	00r
.	2a\	.	.
2.AA/	.	.	.
.	4cc\	.	.
.	2.ee\	.	.
4AA/	.	.	.
2C/	.	.	.
.	8dd\	.	.
.	8cc\	.	.
=118-	=118-	=118-	=118-
2.E\	4b\	.	.
.	4g/	.	.
.	2b\	.	.
8D/	.	.	.
8C/	.	.	.
4BB/	2.dd\	.	.
4C/	.	.	.
[>2D/	.	.	.
.	8cc\	.	.
.	8b\	.	.
=119	=119	=119	=119
2D/]	2a\	00r	00r
2AA/	2.cc\	.	.
2C/	.	.	.
.	4g/	.	.
2GG/	2b\	.	.
=120-	=120-	=120-	=120-
2D/	2a\	.	.
2AA/	2.cc\	.	.
2.C/	.	.	.
.	4b\	.	.
.	[y2a\	.	.
4D/	.	.	.
=121	=121	=121	=121
!	!LO:N:xstem:cue	!	!
1E	4a\]	00r	00r
.	8g#X/	.	.
.	8f/	.	.
.	2g#/	.	.
4AA/	4a\	.	.
2D/	2a\	.	.
4BB/	4b\	.	.
=122-	=122-	=122-	=122-
2C/	2gny/	.	.
2AA/	2a\	.	.
1GG	1b	.	.
=123	=123	=123	=123
4D/	4a\	00r	00r
2AA/	2cc\	.	.
4BB/	4b\	.	.
2C/	2g/	.	.
2AA/	2a\	.	.
=124-	=124-	=124-	=124-
2E\	4b\	.	.
.	4g/	.	.
4D/	2.cc\	.	.
4D/	.	.	.
2G\	.	.	.
.	8b\	.	.
.	8a\	.	.
2GG/	2b\	.	.
=125	=125	=125	=125
0C	0cc	1r	2r
.	.	.	2cc\
.	.	2r	2ee\
.	.	2c\	2.gg\
=126-	=126-	=126-	=126-
0r	0r	2e\	.
.	.	.	8ff\
.	.	.	8ee\
.	.	2e\	2dd\
.	.	4c\	2.ee\
.	.	4C/	.
.	.	2E\	.
.	.	.	8dd\
.	.	.	8cc\
=127	=127	=127	=127
00r	00r	2G\	4b/
.	.	.	4g/
.	.	4G\	2b/
.	.	4GG/	.
.	.	2BB/	2dd\
.	.	2D/	4a/
.	.	.	4a/
=128-	=128-	=128-	=128-
.	.	2AA/	2cc\
.	.	4AA/	2.ee\
.	.	4BB/	.
.	.	4C/	.
.	.	4D/	8dd\
.	.	.	8cc\
.	.	2E\	2b/
=129	=129	=129	=129
00r	00r	2AA/	2cc\
.	.	1D	1dd
.	.	2BB/	2dd\
=130-	=130-	=130-	=130-
.	.	2C/	2cc\
.	.	2GG/	2b/
.	.	1D	1a
=131	=131	=131	=131
0r	0r	2.GG/	2b/
.	.	.	1dd
.	.	4G\	.
.	.	2F\	.
.	.	2E\	2ee\
=132-	=132-	=132-	=132-
1r	1r	1D	1ff#X
*custos:GG	*	*custos:G	*custos:dd
1GG	2r	[<1G	1gg
*	*custos:dd	*	*
.	[<2dd\	.	.
!!LO:LB:g=original
=133	=133	=133	=133
2GG/	2dd\]	1G]	1.dd
2AA/	2cc\	.	.
2BB/	2b\	1G	.
2C/	4a\	.	2ee\
.	4g/	.	.
=134-	=134-	=134-	=134-
1D	2.dd\	1r	1ff#X
.	4cc\	.	.
2GG/	2b\	2r	2gg\
[>2C/	[>2cc\	[>2C/	[>2ee\
=135	=135	=135	=135
2C/]	2cc\]	2C/]	2ee\]
2C/	2cc\	2C/	2ee\
2FF/	2a\	2F\	2ff\
2FF/	2cc\	2F\	2cc\
=136-	=136-	=136-	=136-
1C	1cc	2.E\	1ee
.	.	8D/	.
.	.	8C/	.
2GG/	2b\	2D/	2dd\
[>2DD/	[>2a\	[>2D/	[>2dd\
=137	=137	=137	=137
2DD/]	2a\]	2D/]	2dd\]
2DD/	2a\	2D/	2g/
1AA	2.a\	4E\	2.cc\
.	.	4D/	.
.	.	4C/	.
.	4b\	4BB/	4dd\
=138-	=138-	=138-	=138-
2AA/	2cc\	2AA/	4ee\
.	.	.	4cc\
2FF/	2cc\	2C/	2ff\
2GG/	2b-X\	4G\	4ee\
.	.	4F\	4dd\
2DD/	2a\	4F\	2dd\
.	.	8E\	.
.	.	8D\	.
=139	=139	=139	=139
1.AA	1.a	0E	2dd\
.	.	.	4cc#X\
.	.	.	4b/
.	.	.	2cc#X\
2AA/	2a\	.	2cc#\
=140-	=140-	=140-	=140-
2DD/	2a\	1D	1dd
1D	1f#X	.	.
.	.	1r	1r
2BB/	2g/	.	.
=141	=141	=141	=141
1.C	2.e/	0r	0r
.	4d/	.	.
.	4e#X/	.	.
.	4f/	.	.
2GG/	4g/	.	.
.	2g/	.	.
=142-	=142-	=142-	=142-
1D	.	1r	1r
.	8f#X/	.	.
.	8eny/	.	.
.	2f#/	.	.
2GG/	2g/	2r	2r
[<2GG/	[<2dd\	[<2D/	[<2gg\
=143	=143	=143	=143
2GG/]	2dd\]	2D/]	2gg\]
2C/	2ee\	2C/	2ee\
2.FF/	0cc	0C	1.ff
4GG/	.	.	.
=144-	=144-	=144-	=144-
2.AA/	.	.	.
.	.	.	2.ee\
4BB/	.	.	.
2C/	1cc	1C	.
.	.	.	4dd\
2C/	.	.	[y2cc\
=145	=145	=145	=145
!	!	!	!LO:N:xstem:cue
1GG	1dd	1G	4cc\]
.	.	.	8b#X/
.	.	.	8a/
.	.	.	2b#/
1C	1cc	1C	1cc
=146-	=146-	=146-	=146-
*M3/1	*M3/1	*M3/1	*M3/1
*met(3/2)	*met(3/2)	*met(3/2)	*met(3/2)
1%6r	1%6r	1C	1ee
.	.	1F	1ff
.	.	1G	1dd
=147-	=147-	=147-	=147-
*	*	*	*col
.	.	1.A	0cc
.	.	2G\	.
.	.	1F#X	1dd
=148	=148	=148	=148
*	*	*col	*
1%6r	1%6r	1G	1dd
.	.	0E	0ee
*	*	*Xcol	*Xcol
=149-	=149-	=149-	=149-
.	.	0.D	0.a
=150-	=150-	=150-	=150-
1GG	1b	1%6r	1%6r
1C	1cc	.	.
1D	1a	.	.
=151	=151	=151	=151
1.E	1.g	.	.
2D/	4f#X/	.	.
.	4g/	.	.
1C	2a\	.	.
.	2g/	.	.
=152	=152	=152	=152
*col	*	*	*
1GG	1.g	1%6r	1%6r
0D	.	.	.
.	4f#X/	.	.
.	4e/	.	.
.	1f#	.	.
*Xcol	*	*	*
=153-	=153-	=153-	=153-
0.GG	0.g	.	.
=154-	=154-	=154-	=154-
1%6r	1%6r	1G	1dd
.	.	1E	1ee
.	.	1F	1cc
=155-	=155-	=155-	=155-
.	.	1.D	1.ff
.	.	2E\	2ee\
.	.	1F	2dd\
.	.	.	2cc\
=156	=156	=156	=156
1%6r	1%6r	1C	1.cc
.	.	1G	.
.	.	.	4b/
.	.	.	4a/
.	.	1GG	1b
=157-	=157-	=157-	=157-
.	.	0.C	0.cc
=158-	=158-	=158-	=158-
1C	1cc	1E	1ee
1GG	1b	1D	1gg
1D	1dd	1D	1ff
=159-	=159-	=159-	=159-
*	*	*col	*
1.AA	1cc	1E	2ee\
.	.	.	2dd\
.	0a	0AA	2cc\
2GG/	.	.	2b\
1FF	.	.	2cc\
.	.	.	2a/
=160	=160	=160	=160
*	*col	*	*
1DD	1a	1AA	1.dd
0AA	0a	0AA	.
.	.	.	4cc#X\
.	.	.	4b/
.	.	.	1cc#
*	*Xcol	*Xcol	*
=161-	=161-	=161-	=161-
0.DD	0.a	0.D	0.dd
=162-	=162-	=162-	=162-
1GG	1b	1D	1dd
1EE	1cc	1C	1ee
1FF	1a	1C	1ccny
=163-	=163-	=163-	=163-
*	*col	*col	*col
2C/	0g	0C	0cc
2BB/	.	.	.
2AA/	.	.	.
2GG/	.	.	.
*custos:GG	*custos:b	*custos:GG	*custos:b
1FF	1a	1C	1cc
!!LO:LB:g=original
=164-	=164-	=164-	=164-
1GG	1b	1GG	1b
0DD	0dd	0D	0a
*	*Xcol	*Xcol	*Xcol
=165-	=165-	=165-	=165-
*M2/1	*M2/1	*M2/1	*M2/1
*met(C|)	*met(C|)	*met(C|)	*met(C|)
2AA/	2dd\	2D/	2b/
1C	1cc	1E	4cc\
.	.	.	4dd\
.	.	.	4ee\
.	.	.	4ff\
2BB/	2dd\	2D/	1gg\
=166-	=166-	=166-	=166-
0C	2.ee\	4C/	.
.	.	4D/	.
.	.	4E\	2ee\
.	4dd\	4F\	.
.	4cc\	2E\	1ee
.	4g/	.	.
.	1cc\	2C/	.
=167-	=167-	=167-	=167-
0GGl	.	0Gl	0ddl
.	4b\	.	.
.	4a\	.	.
.	1bl	.	.
==	==	==	==
*-	*-	*-	*-
!!!system-decoration: (s1,s2,s3,s4)
!!!RDF**kern: < = below
!!!RDF**kern: > = above
!!!RDF**kern: l = terminal long
!!!ENC: Filip Voros
!!!END: 2021-12-14
!!!ENC: Marta Chmielewska
!!!END: 2021-12-27
!!!YEC: Copyright 2022 Narodowy Instytut Fryderyka Chopina (https://polishscores.org)
!!!YEM: License CC-BY-4.0 (https://creativecommons.org/licenses/by/4.0)
